!!!!SEGMENT: pl-kk--kk-i-341_gorczycki-grzegorz-gerwazy-iesu-redemptor-omnium.krn
!!!id: 17xx:2152
!!!COM: Gorczycki, Grzegorz Gerwazy
!!!OTL: Iesu redemptor omnium
!!!PDT:
!!!SMS-siglum: PL-Kk
!!!SMS-shelfmark: Kk.I.341
!!!NIFC-rismID: 1001144999
!!!URL-scan: http://repozytorium.nifc.pl/skany/pl-kk-nut--i-341
!!!ONB-nifc:
!!!SMS-variant:
!!!SMS-altvar:
**kern	**text	**kern	**text	**kern	**text	**kern	**text
*part4	*part4	*part3	*part3	*part2	*part2	*part1	*part1
*staff4	*staff4	*staff3	*staff3	*staff2	*staff2	*staff1	*staff1
*I"Baſso.	*	*I"Tenore.	*	*I"Alto.	*	*I"Canto.	*
*I'B	*	*I'T	*	*I'A	*	*I'S	*
*clefF4	*	*clefC4	*	*clefC3	*	*clefC1	*
*k[]	*	*k[]	*	*k[]	*	*k[]	*
*M3/2	*	*M3/2	*	*M3/2	*	*M3/2	*
=1-	=1-	=1-	=1-	=1-	=1-	=1-	=1-
*2\right	*	*2\right	*	*2\right	*	*2\right	*
!LO:TX:a:t=Hymnus de Nativitate D(omin)i.	!	!LO:TX:a:t=Hymnus de Nativitate D(omin)i	!	!LO:TX:a:t=Hymnus de Nativitate D(omin)i.	!	!LO:TX:a:t=Hymnus de Nativitate D(omin)i.	!
!LO:TX:t=P:problem:Inicjał "J" po lewej stronie pięciolinii, przed kluczem	!	!LO:TX:t=P:problem:Inicjał "J" po lewej stronie pięciolinii, przed kluczem	!	!LO:TX:t=P:problem:Inicjał "J" po lewej stronie pięciolinii, przed kluczem	!	!LO:TX:t=P:problem:Inicjał "J" po lewej stronie pięciolinii, przed kluczem	!
2D\	JE-	2d\	JE-	2f\	JE-	2a\	JE-
2C#X/	-ſu	2A\	-ſu	2e\	-ſu	2a\	-ſu
!LO:TX:t=P:problem:kreska pseudotaktowa	!	!LO:TX:t=P:problem:kreska pseudotaktowa	!	!LO:TX:t=P:problem:kreska pseudotaktowa	!	!LO:TX:t=P:problem:kreska pseudotaktowa	!
2D\	Re-	2d\	Re-	2f\	Re-	2a\	Re-
=2-	=2-	=2-	=2-	=2-	=2-	=2-	=2-
1GG	-demp-	1d	-demp-	1f	-demp-	1b-X	-demp-
!LO:TX:t=P:problem:kreska pseudotaktowa	!	!LO:TX:t=P:problem:kreska pseudotaktowa	!	!LO:TX:t=P:problem:kreska pseudotaktowa	!	!LO:TX:t=P:problem:kreska pseudotaktowa	!
2Cny/	-tor	2c\	-tor	2e\	-tor	2g\	-tor
=3-	=3-	=3-	=3-	=3-	=3-	=3-	=3-
2.F\	om-	2.c\	om-	2.f\	om-	2.a\	om-
4F\	-ni-	4c\	-ni-	4f\	-ni-	4a\	-ni-
!LO:TX:t=P:problem:kreska pseudotaktowa	!	!LO:TX:t=P:problem:kreska pseudotaktowa	!	!LO:TX:t=P:problem:kreska pseudotaktowa	!	!LO:TX:t=P:problem:kreska pseudotaktowa	!
2F\	-um	2c\	-um	2f\	-um	2a\	-um
=4-	=4-	=4-	=4-	=4-	=4-	=4-	=4-
*M2/1	*	*M2/1	*	*M2/1	*	*M2/1	*
*met(C|)	*	*met(C|)	*	*met(C|)	*	*met(C|)	*
!	!	!	!	!	!	!LO:TX:t=P:problem:kreska pseudotaktowa	!
00r	.	00r	.	0r	.	1g	Quem
!	!	!	!	!	!	!LO:TX:t=P:problem:kreska pseudotaktowa	!
.	.	.	.	.	.	1a	lu-
=5-	=5-	=5-	=5-	=5-	=5-	=5-	=5-
!	!	!	!	!	!	!LO:TX:t=P:problem:kreska pseudotaktowa	!
.	.	.	.	1r	.	1cc	.
!	!	!	!	!LO:TX:t=P:problem:kreska pseudotaktowa	!	!LO:TX:t=P:problem:kreska pseudotaktowa	!
.	.	.	.	1c	Quem	1cc	-cis
=6-	=6-	=6-	=6-	=6-	=6-	=6-	=6-
!	!	!	!	!	!	!LO:TX:t=P:problem:kreska pseudotaktowa	!
00r	.	1r	.	2.e\	lu-	1cc	an
!	!	!	!	!LO:TX:t=P:problem:kreska pseudotaktowa	!	!	!
.	.	.	.	4f\	.	.	.
!	!	!LO:TX:t=P:problem:kreska pseudotaktowa	!	!	!	!LO:TX:t=P:problem:brak źródła-urwana kartka	!
.	.	1G	Quem	2g\	.	1ryy	.
!	!	!	!	!LO:TX:t=P:problem:kreska pseudotaktowa	!	!	!
.	.	.	.	2g\	-cis	.	.
=7-	=7-	=7-	=7-	=7-	=7-	=7-	=7-
!	!	!LO:TX:t=P:problem:kreska pseudotaktowa	!	!LO:TX:t=P:problem:kreska pseudotaktowa	!	!	!
.	.	1A	lu-	1f	an te	0ryy	.
!	!	!LO:TX:t=P:problem:kreska pseudotaktowa	!	!LO:TX:t=P:problem:brak źródła-urwana kartka	!	!	!
.	.	1c	.	1ryy	.	.	.
=8-	=8-	=8-	=8-	=8-	=8-	=8-	=8-
!	!	!LO:TX:t=P:problem:kreska pseudotaktowa	!	!	!	!	!
2ryy	.	1c	-cis	0ryy	.	2ryy	.
!LO:TX:t=P:problem:kreska pseudotaktowa	!	!	!	!	!	!	!
!	!	!	!	!	!	!LO:LB:g=original	!
1C	Quem	.	.	.	.	2.ee\	ri-
!	!	!LO:TX:t=P:problem:kreska pseudotaktowa	!	!	!	!	!
.	.	1c	an	.	.	.	.
.	.	.	.	.	.	4dd\	-gi-
!	!	!	!	!	!	!LO:TX:t=P:problem:kreska pseudotaktowa	!
2.E\	lu	.	.	.	.	2cc\	-nem
!	!	!	!	!LO:LB:g=original	!	!	!
=9-	=9-	=9-	=9-	=9-	=9-	=9-	=9-
!	!	!LO:TX:t=P:problem:brak źródła-urwana kartka	!	!LO:TX:t=P:problem:w poprzednim takcie musi być sylaba o	!	!LO:TX:t=P:problem:kreska pseudotaktowa	!
.	.	0ryy	.	4g\	[o-]-	1r	.
!LO:TX:t=P:problem:brak źródła-urwana kartka	!	!	!	!	!	!	!
4ryy	.	.	.	4f\	.	.	.
!	!	!	!	!LO:TX:t=P:problem:kreska pseudotaktowa	!	!	!
2ryy	.	.	.	2e\	.	.	.
!	!	!	!	!	!	!LO:TX:t=P:problem:kreska pseudotaktowa	!
1ryy	.	.	.	2d\	.	1g	Quem
!	!	!	!	!LO:TX:t=P:problem:kreska pseudotaktowa	!	!	!
.	.	.	.	2g\	.	.	.
=10-	=10-	=10-	=10-	=10-	=10-	=10-	=10-
!	!	!	!	!	!	!LO:TX:t=P:problem:kreska pseudotaktowa	!
1ryy	.	0ryy	.	2c\	.	1a	lu-
!	!	!	!	!LO:TX:t=P:problem:kreska pseudotaktowa	!	!	!
.	.	.	.	2f\	.	.	.
2ryy	.	.	.	2B/	.	2bny,\	-cis,
!LO:LB:g=original	!	!	!	!	!	!	!
1C/	o-	.	.	1e\	.	1cc\	an-
!	!	!LO:LB:g=original	!	!	!	!	!
=11-	=11-	=11-	=11-	=11-	=11-	=11-	=11-
!	!	!LO:TX:t=P:problem:kreska pseudotaktowa	!	!	!	!	!
.	.	1A	ri-	.	.	.	.
!LO:TX:t=P:problem:kreska pseudotaktowa	!	!	!	!LO:TX:t=P:problem:kreska pseudotaktowa	!	!	!
2D\	.	.	.	2f\	.	1a	-te
4AA/	.	2.c\	.	2.e\	.	.	.
4BB/	.	.	.	.	.	.	.
4C/	.	.	.	.	.	4ee\	o-
!LO:TX:t=P:problem:kreska pseudotaktowa	!	!LO:TX:t=P:problem:kreska pseudotaktowa	!	!LO:TX:t=P:problem:kreska pseudotaktowa	!	!LO:TX:t=P:problem:kreska pseudotaktowa	!
4D/	.	4c\	-gi-	4f\	.	4dd\	.
=12-	=12-	=12-	=12-	=12-	=12-	=12-	=12-
!	!	!LO:TX:t=P:problem:kreska pseudotaktowa	!	!	!	!	!
4E\	.	1c	-nem	4g\	.	4cc\	.
4D\	.	.	.	4f\	.	4g\	.
!	!	!	!	!LO:TX:t=P:problem:kreska pseudotaktowa	!	!	!
4E\	.	.	.	2e\	.	1cc	-ri-
!LO:TX:t=P:problem:kreska pseudotaktowa	!	!	!	!	!	!	!
4F\	.	.	.	.	.	.	.
!	!	!LO:TX:t=P:problem:kreska pseudotaktowa	!	!	!	!	!
2.G\	-ri-	1G	pa-	2.d\	-ri-	.	.
!	!	!	!	!	!	!LO:TX:t=P:problem:kreska pseudotaktowa	!
.	.	.	.	.	.	2b\	-gi-
!LO:TX:t=P:problem:kreska pseudotaktowa	!	!	!	!LO:TX:t=P:problem:kreska pseudotaktowa	!	!	!
4G\	-gi-	.	.	4d\	-gi-	.	.
=13-	=13-	=13-	=13-	=13-	=13-	=13-	=13-
!	!	!LO:TX:t=P:problem:kreska pseudotaktowa	!	!LO:TX:t=P:problem:kreska pseudotaktowa	!	!LO:TX:t=P:problem:kreska pseudotaktowa	!
2C,/	-nem	1c	-rem	1e	-nem	1cc	-nem
!LO:TX:t=P:problem:kreska pseudotaktowa	!	!	!	!	!	!	!
2C/	Pa-	.	.	.	.	.	.
!LO:TX:t=P:problem:kreska pseudotaktowa	!	!LO:TX:t=P:problem:kreska pseudotaktowa	!	!LO:TX:t=P:problem:kreska pseudotaktowa	!LO:TX:t=P:problem:kreska pseudotaktowa	!	!
1F	-rem	1d	.	0r	.	1r	.
=14-	=14-	=14-	=14-	=14-	=14-	=14-	=14-
!LO:TX:t=P:problem:kreska pseudotaktowa	!	!LO:TX:t=P:problem:kreska pseudotaktowa	!	!	!	!LO:TX:t=P:problem:kreska pseudotaktowa	!
1G	.	1B	Pa-	.	.	1g	Pa-
!	!	!LO:TX:t=P:problem:kreska pseudotaktowa	!	!LO:TX:t=P:problem:kreska pseudotaktowa	!	!LO:TX:t=P:problem:kreska pseudotaktowa	!
2E\	Pa-	1c	-ter-	1c	Pa-	1cc	.
1A\	-ter-	.	.	.	.	.	.
!	!	!	!	!LO:LB:g=original	!	!LO:LB:g=original	!
=15-	=15-	=15-	=15-	=15-	=15-	=15-	=15-
!	!	!LO:TX:t=P:problem:kreska pseudotaktowa	!	!	!	!	!
.	.	1B	.	2f\	-rem	2dd\	-rem
!	!	!	!	!LO:TX:t=P:problem:kreska pseudotaktowa	!	!LO:TX:t=P:problem:kreska pseudotaktowa	!
2G\	-nae	.	.	2g\	Pa-	2b\	Pa-
!LO:TX:t=P:problem:brak źródła-urwana kartka	!	!LO:TX:t=P:problem:kreska pseudotaktowa	!	!	!	!	!
1ryy	.	1A	.	4a\	-ter-	4cc\	-ter-
.	.	.	.	4g\	.	4a\	-nae
.	.	.	.	4f\	.	1dd\	glo-
!	!	!	!	!LO:TX:t=P:problem:kreska pseudotaktowa	!	!	!
!	!	!	!	!LO:TX:t=P:problem:łuczek nad nutą	!	!	!
.	.	.	.	4e\	.	.	.
=16-	=16-	=16-	=16-	=16-	=16-	=16-	=16-
!	!	!LO:TX:t=P:problem:kreska pseudotaktowa	!	!	!	!	!
1ryy	.	1G	-nae	4g\	.	.	.
.	.	.	.	4f\	.	.	.
.	.	.	.	4e\	.	1ccn	.
!	!	!	!	!LO:TX:t=P:problem:kreska pseudotaktowa	!	!	!
.	.	.	.	4c\	.	.	.
!LO:LB:g=original	!	!	!	!	!	!	!
!LO:TX:t=P:problem:wcześniej powinno być "glo"	!	!	!	!	!	!	!
!LO:TX:t=P:problem:kreska pseudotaktowa	!	!LO:TX:t=P:problem:kreska pseudotaktowa	!	!LO:TX:t=P:problem:kreska pseudotaktowa	!	!	!
1D	[glo]-	1A	glo-	1f	.	.	.
!	!	!	!	!	!	!LO:TX:t=P:problem:kreska pseudotaktowa	!
.	.	.	.	.	.	2b\	.
=17-	=17-	=17-	=17-	=17-	=17-	=17-	=17-
!	!	!LO:TX:t=P:problem:kreska pseudotaktowa	!	!	!	!	!
2C/	.	1E	.	2e\	-nae	4cc\	.
.	.	.	.	.	.	4g\	.
!LO:TX:t=P:problem:kreska pseudotaktowa:między nutą a kropką	!	!	!	!	!	!	!
2.AA/	.	.	.	2.e\	glo-	4a\	.
!	!	!	!	!	!	!LO:TX:t=P:problem:kreska pseudotaktowa	!
.	.	.	.	.	.	4b\	.
!	!	!LO:TX:t=P:problem:kreska pseudotaktowa	!	!	!	!	!
.	.	1E	.	.	.	4cc\	.
4BB/	.	.	.	4d\	.	4dd\	.
4C/	.	.	.	4c\	.	4ee\	.
!LO:TX:t=P:problem:kreska pseudotaktowa	!	!	!	!LO:TX:t=P:problem:kreska pseudotaktowa	!	!	!
4D/	.	.	.	4A/	.	8dd\L	.
!	!	!	!	!	!	!LO:TX:t=P:problem:kreska pseudotaktowa	!
.	.	.	.	.	.	8cc\J	.
=18-	=18-	=18-	=18-	=18-	=18-	=18-	=18-
!	!	!LO:TX:t=P:problem:kreska pseudotaktowa	!	!	!	!	!
2.E\	.	1G#X	-ri ae	2.e\	.	2.b\	.
!LO:TX:t=P:problem:kreska pseudotaktowa	!	!	!	!LO:TX:t=P:problem:kreska pseudotaktowa	!	!LO:TX:t=P:problem:kreska pseudotaktowa	!
4E\	-ri-	.	.	4e\	-ri-	4b\	-ri-
!LO:TX:t=P:problem:kreska pseudotaktowa	!	!LO:TX:t=P:problem:brak źródła-urwana kartka	!	!LO:TX:t=P:problem:kreska pseudotaktowa	!	!LO:TX:t=P:problem:kreska pseudotaktowa	!
1AA	-ae	1ryy	.	1e	-ae	1cc	-ae
!	!	!LO:LB:g=original	!	!	!	!	!
=19-	=19-	=19-	=19-	=19-	=19-	=19-	=19-
!LO:TX:a:B:t=3.	!	!LO:TX:t=P:problem:kreska pseudotaktowa	!	!	!	!	!
0r	.	1E	Pa-	2d\	Pa-	0r	.
!	!	!	!	!LO:TX:t=P:problem:kreska pseudotaktowa:między nutą a kropką	!	!	!
.	.	.	.	2.f\	-ter	.	.
!	!	!LO:TX:t=P:problem:kreska pseudotaktowa	!	!	!	!	!
.	.	1F	-ter	.	.	.	.
.	.	.	.	4g\	ſu-	.	.
!	!	!	!	!LO:TX:t=P:problem:kreska pseudotaktowa:między nutą a kropką	!	!	!
.	.	.	.	2.a\	-pre-	.	.
=20-	=20-	=20-	=20-	=20-	=20-	=20-	=20-
!LO:TX:t=P:problem:kreska pseudotaktowa	!	!LO:TX:t=P:problem:kreska pseudotaktowa	!	!	!	!	!
1r	.	1F	ſu-	.	.	2.a\	Pa-
.	.	.	.	4g\	.	.	.
!	!	!	!	!LO:TX:t=P:problem:kreska pseudotaktowa	!	!	!
.	.	.	.	2f\	.	.	.
!	!	!	!	!	!	!LO:TX:t=P:problem:kreska pseudotaktowa	!
.	.	.	.	.	.	4b\	-ter
!LO:TX:t=P:problem:kreska pseudotaktowa	!	!LO:TX:t=P:problem:kreska pseudotaktowa	!	!	!	!	!
!	!	!	!	!LO:LB:g=original	!	!	!
1AA	Pa-	1A	-pre-	2e\	-mus	2cc\	ſu-
!	!	!	!	!LO:TX:t=P:problem:kreska pseudotaktowa	!	!LO:TX:t=P:problem:kreska pseudotaktowa	!
.	.	.	.	2a\	Pa-	2cc\	.
=21-	=21-	=21-	=21-	=21-	=21-	=21-	=21-
!	!	!LO:TX:t=P:problem:kreska pseudotaktowa	!	!	!	!LO:TX:t=P:problem:kreska pseudotaktowa	!
2D\	-ter	1B-X	.	2f\	-ter	1dd	-pre-
!LO:TX:t=P:problem:kreska pseudotaktowa	!	!	!	!LO:TX:t=P:problem:kreska pseudotaktowa	!	!	!
2E\	ſu-	.	.	2g\	ſu-	.	.
!	!	!	!	!	!	!LO:LB:g=original	!
!LO:TX:t=P:problem:kreska pseudotaktowa	!	!LO:TX:t=P:problem:kreska pseudotaktowa	!	!	!	!	!
1F	-pre-	1A	-mus	2a\	-pre-	2cc\	-mus
!	!	!	!	!LO:TX:t=P:problem:kreska pseudotaktowa	!	!LO:TX:t=P:problem:kreska pseudotaktowa	!
.	.	.	.	2d\	-mus	2dd\	e-
=22-	=22-	=22-	=22-	=22-	=22-	=22-	=22-
!	!	!LO:TX:t=P:problem:kreska pseudotaktowa	!	!	!	!	!
2E,\	-mus,	1Gny	.	2.e\	e-	2b\	.
!LO:TX:t=P:problem:kreska pseudotaktowa:między nutą a kropką	!	!	!	!	!	!LO:TX:t=P:problem:kreska pseudotaktowa:między nutą a kropką	!
2.C/	e-	.	.	.	.	2.ee\	.
!	!	!	!	!LO:TX:t=P:problem:kreska pseudotaktowa	!	!	!
.	.	.	.	4f\	.	.	.
!	!	!LO:TX:t=P:problem:kreska pseudotaktowa	!	!	!	!	!
.	.	1E	e-	4g\	.	.	.
4D/	.	.	.	4f\	.	4dd\	.
4E/	.	.	.	4g\	.	4cc\	.
!LO:TX:t=P:problem:kreska pseudotaktowa	!	!	!	!LO:TX:t=P:problem:kreska pseudotaktowa	!	!LO:TX:t=P:problem:kreska pseudotaktowa	!
4C/	.	.	.	4e\	.	4b\	.
=23-	=23-	=23-	=23-	=23-	=23-	=23-	=23-
!	!	!LO:TX:t=P:problem:kreska pseudotaktowa	!	!	!	!LO:TX:t=P:problem:kreska pseudotaktowa	!
4D\	.	1F	.	4a\	.	1a	.
4E\	.	.	.	4g\	.	.	.
1F	.	.	.	4f\	.	.	.
!	!	!	!	!LO:TX:t=P:problem:kreska pseudotaktowa	!	!	!
.	.	.	.	4e\	.	.	.
!	!	!LO:TX:t=P:problem:kreska pseudotaktowa	!	!	!	!	!
.	.	1G	.	2d\	.	2b\	.
!LO:LB:g=original	!	!	!	!	!	!	!
!LO:TX:t=P:problem:kreska pseudotaktowa	!	!	!	!LO:TX:t=P:problem:kreska pseudotaktowa	!	!LO:TX:t=P:problem:kreska pseudotaktowa	!
2E\	.	.	.	2e\	.	2cc#X\	.
=24-	=24-	=24-	=24-	=24-	=24-	=24-	=24-
1.D	.	1.F	.	1.f	.	1.dd	.
!LO:TX:t=P:problem:kreska pseudotaktowa	!	!LO:TX:t=P:problem:kreska pseudotaktowa	!	!LO:TX:t=P:problem:kreska pseudotaktowa	!	!LO:TX:t=P:problem:kreska pseudotaktowa	!
2D\	-di-	2F/	-di-	2d\	-di-	2dd\	-di-
=25-	=25-	=25-	=25-	=25-	=25-	=25-	=25-
00AA;>	-dit	00E;>	-dit	00e;>	-dit	00cc#X;>	-dit
!	!	!LO:LB:g=original	!	!LO:LB:g=original	!	!	!
=26||-	=26||-	=26||-	=26||-	=26||-	=26||-	=26||-	=26||-
*M3/2	*	*M3/2	*	*M3/2	*	*M3/2	*
2D\	Me-	2d\	Me-	2f\	Me-	2a\	Me-
2C#X\	-men-	2A\	-men-	2e\	-men-	2a\	-men-
!LO:TX:t=P:problem:kreska pseudotaktowa	!	!LO:TX:t=P:problem:kreska pseudotaktowa	!	!LO:TX:t=P:problem:kreska pseudotaktowa	!	!LO:TX:t=P:problem:kreska pseudotaktowa	!
2D\	-to	2d\	-to	2f\	-to	2a\	-to
=27-	=27-	=27-	=27-	=27-	=27-	=27-	=27-
1GG	re-	1d	re-	1f	re-	1b-X	re-
!LO:TX:t=P:problem:kreska pseudotaktowa	!	!LO:TX:t=P:problem:kreska pseudotaktowa	!	!LO:TX:t=P:problem:kreska pseudotaktowa	!	!LO:TX:t=P:problem:kreska pseudotaktowa	!
2Cny/	-rum	2c\	-rum	2e\	-rum	2g\	-rum
=28-	=28-	=28-	=28-	=28-	=28-	=28-	=28-
2.F\	Con-	2.c\	Con-	2.f\	Con-	2.a\	Con-
4F\	-di-	4c\	-di-	4f\	-di-	4a\	-di-
!LO:TX:t=P:problem:kreska pseudotaktowa	!	!LO:TX:t=P:problem:kreska pseudotaktowa	!	!LO:TX:t=P:problem:kreska pseudotaktowa	!	!LO:TX:t=P:problem:kreska pseudotaktowa	!
2F\	-tor	2c\	-tor	2f\	-tor	2a\	-tor
!	!	!	!	!	!	!LO:LB:g=original	!
=29-	=29-	=29-	=29-	=29-	=29-	=29-	=29-
2A\	no-	2A\	no-	2e\	no-	2ccny\	no-
2G\	-stri	2Bny\,	-stri	2e\	-stri	2bn\	-stri
!LO:TX:t=P:problem:kreska pseudotaktowa	!	!LO:TX:t=P:problem:kreska pseudotaktowa	!	!LO:TX:t=P:problem:kreska pseudotaktowa	!	!LO:TX:t=P:problem:kreska pseudotaktowa	!
2A\	quod	2A\	quod	2e\	quod	2cc\	quod
=30-	=30-	=30-	=30-	=30-	=30-	=30-	=30-
1F	o-	1A	o-	1f	o-	1cc	o-
!LO:TX:t=P:problem:kreska pseudotaktowa	!	!LO:TX:t=P:problem:kreska pseudotaktowa	!	!LO:TX:t=P:problem:kreska pseudotaktowa	!	!LO:TX:t=P:problem:kreska pseudotaktowa	!
2D\	-lim	2A\	-lim	2f\	-lim	2dd\	-lim
=31-	=31-	=31-	=31-	=31-	=31-	=31-	=31-
!	!	!	!	!LO:TX:t=P:problem:łuczek nad nutą	!	!	!
!	!	!	!	!	!	!LO:TX:t=P:problem:kreska nad nutą	!
2D\	cor-	2A\	.	2f\	.	2dd\	.
2.E\	-po-	2A\	Cor-	2.e\	cor-	2.b\	cor-
!	!	!LO:TX:t=P:problem:kreska pseudotaktowa	!	!	!	!	!
.	.	2G#X/	-po-	.	.	.	.
!LO:TX:t=P:problem:kreska pseudotaktowa	!	!	!	!LO:TX:t=P:problem:kreska pseudotaktowa	!	!LO:TX:t=P:problem:kreska pseudotaktowa	!
4E\	.	.	.	4e\	-po-	4b\	-po-
!LO:LB:g=original	!	!	!	!	!	!	!
=32-	=32-	=32-	=32-	=32-	=32-	=32-	=32-
!	!	!	!	!	!	!LO:N:vis=1	!
!LO:TX:t=P:problem:kreska pseudotaktowa	!	!LO:TX:t=P:problem:kreska pseudotaktowa	!	!LO:TX:t=P:problem:kreska pseudotaktowa	!	!LO:TX:t=P:problem:kreska pseudotaktowa	!
1.AA	-ris	1.A	-ris	1.e	-ris	1.cc#X	-ris
=33-	=33-	=33-	=33-	=33-	=33-	=33-	=33-
2F\	ſa-	2A\	ſa-	2f\	ſa-	2cc\	sa-
2F\	-cra-	2B\	-cra-	2d\	-cra-	2dd\	-cra-
!LO:TX:t=P:problem:kreska pseudotaktowa	!	!	!	!LO:TX:t=P:problem:kreska pseudotaktowa	!	!LO:TX:t=P:problem:kreska pseudotaktowa	!
2E\	-to	4c\,	-to	2g\	-to	2ee\	-to
.	.	4c\	ab	.	.	.	.
!	!	!LO:LB:g=original	!	!LO:LB:g=original	!	!	!
=34-	=34-	=34-	=34-	=34-	=34-	=34-	=34-
2D\	ab	1d	al-	2f\	ab	2a\	ab,
2D\	al-	.	.	2f\	al-	2a\	al-
!LO:TX:t=P:problem:kreska pseudotaktowa	!	!LO:TX:t=P:problem:kreska pseudotaktowa	!	!LO:TX:t=P:problem:kreska pseudotaktowa	!	!LO:TX:t=P:problem:kreska pseudotaktowa	!
2D\	-vo	2d\	-vo	2f\	-vo	2b\	-vo
=35-	=35-	=35-	=35-	=35-	=35-	=35-	=35-
2.C/	vir-	2.e\	Vir-	2.e\	Vir-	2.cc\	Vir-
4C/	-gi-	4e\	-gi-	4f\	-gi-	4cc\	-gi-
!LO:TX:t=P:problem:kreska pseudotaktowa	!	!LO:TX:t=P:problem:kreska pseudotaktowa	!	!LO:TX:t=P:problem:kreska pseudotaktowa	!	!LO:TX:t=P:problem:kreska pseudotaktowa	!
2C/	-nis	2e\	-nis	2g\	-nis	2cc\	-nis
=36-	=36-	=36-	=36-	=36-	=36-	=36-	=36-
2AA/	na-	2e\	na-	2a\	na-	2cc#X\	na-
2BB/	-scen-	2B\	-scen-	2g\	-scen-	2dd\	-scen-
!LO:TX:t=P:problem:kreska pseudotaktowa	!	!LO:TX:t=P:problem:kreska pseudotaktowa	!	!LO:TX:t=P:problem:kreska pseudotaktowa	!	!LO:TX:t=P:problem:kreska pseudotaktowa	!
2C#X/	-do	2e\	-do	2g\	-do	2ee\	-do
!	!	!	!	!	!	!LO:LB:g=original	!
=37-	=37-	=37-	=37-	=37-	=37-	=37-	=37-
1D	for-	1d	for-	1f	for-	1ff	for-
!	!	!LO:TX:t=P:problem:literę "m" zapisano nad "a"	!	!	!	!LO:TX:t=P:problem:literę "m" zapisano nad "a"	!
!LO:TX:t=P:problem:kreska pseudotaktowa:między nutami połączonymi ligaturą	!	!LO:TX:t=P:problem:kreska pseudotaktowa	!	!LO:TX:t=P:problem:kreska pozioma pseudotaktowa:między nutami połączonymi ligaturą	!	!LO:TX:t=P:problem:kreska pseudotaktowa	!
[<2GG/	-mam	2B\	-mam	[>2g\	-mam	2dd\	-mam
=38-	=38-	=38-	=38-	=38-	=38-	=38-	=38-
2GG]	.	2B\	sum-	2g]	.	2dd\	.
2.AA/	ſum-	2.A\	.	2.e\	sum-	2dd\	sum-
!	!	!	!	!	!	!LO:TX:t=P:problem:kreska pseudotaktowa	!
.	.	.	.	.	.	2cc#X\	-pse-
!LO:TX:t=P:problem:kreska pseudotaktowa	!	!LO:TX:t=P:problem:kreska pseudotaktowa	!	!LO:TX:t=P:problem:kreska pseudotaktowa	!	!	!
4AA/	-pse-	4A\	-pse-	4e\	-pse-	.	.
=39-	=39-	=39-	=39-	=39-	=39-	=39-	=39-
1.D	-ris.	1.A;>	-ris.	1.f#X;>	-ris.	1.dd;>	-ris.
!LO:LB:g=original	!	!	!	!	!	!	!
=40||-	=40||-	=40||-	=40||-	=40||-	=40||-	=40||-	=40||-
*M2/1	*	*M2/1	*	*M2/1	*	*M2/1	*
*met(C|)	*	*met(C|)	*	*met(C|)	*	*met(C|)	*
!	!	!	!	!	!	!LO:TX:t=P:problem:kreska pseudotaktowa	!
00r	.	00r	.	00r	.	1d	Hunc
.	.	.	.	.	.	1f	as-
=41-	=41-	=41-	=41-	=41-	=41-	=41-	=41-
!	!	!	!	!	!	!LO:TX:t=P:problem:kreska pseudotaktowa	!
.	.	.	.	.	.	1f	-tra
!	!	!	!	!	!	!LO:TX:t=P:problem:kreska pseudotaktowa	!
.	.	.	.	.	.	1g	tel-
=42-	=42-	=42-	=42-	=42-	=42-	=42-	=42-
!	!	!LO:TX:a:B:t=7.	!	!	!	!	!
!	!	!	!	!LO:TX:t=P:problem:kreska pseudotaktowa	!LO:TX:t=P:problem:kreska pozioma nad nutą	!LO:TX:t=P:problem:kreska pseudotaktowa	!
00r	.	0r	.	1A	Hunc	1a	.
.	.	.	.	2B/	as-	2d,/	-lus
!	!	!	!	!LO:SIC:v:t=custos c:krzyżyk przy custosie	!	!	!
!	!	!	!	!LO:TX:t=P:problem:kreska pseudotaktowa	!	!	!
.	.	.	.	2B/	-tra	1g\	ae-
!	!	!	!	!LO:PB:g=original	!	!	!
=43-	=43-	=43-	=43-	=43-	=43-	=43-	=43-
!	!	!	!	!LO:TX:t=P:problem:brak źródła-urwana kartka	!	!	!
.	.	1r	.	0ryy	.	.	.
!	!	!	!	!	!	!LO:TX:t=P:problem:kreska pseudotaktowa	!
.	.	.	.	.	.	2e/	.
!	!	!LO:TX:t=P:problem:kreska pseudotaktowa	!	!	!	!	!
.	.	1D	Hunc	.	.	4f/	.
.	.	.	.	.	.	4g/	.
.	.	.	.	.	.	4f/	.
!	!	!	!	!	!	!LO:SIC:v:t=custos d	!
!	!	!	!	!	!	!LO:TX:t=P:problem:kreska pseudotaktowa	!
.	.	.	.	.	.	4e/	.
!	!	!	!	!	!	!LO:PB:g=original	!
=44-	=44-	=44-	=44-	=44-	=44-	=44-	=44-
!	!	!LO:TX:t=P:problem:kreska pseudotaktowa	!	!	!	!LO:TX:t=P:problem:ogonki nut są niewidoczne z powodu ubytku w karcie	!
0r	.	1F	as-	1ryy	.	4d/	.
.	.	.	.	.	.	4e/	.
.	.	.	.	.	.	4f/	.
!	!	!	!	!	!	!LO:TX:t=P:problem:kreska pseudotaktowa	!
!	!	!	!	!	!	!LO:TX:t=P:problem:brak źródła-urwana kartka	!
.	.	.	.	.	.	4ryy	.
!	!	!LO:TX:t=P:problem:kreska pseudotaktowa	!	!	!	!	!
.	.	1F	-tra	2A/	us	4a\	.
.	.	.	.	.	.	4b\	.
.	.	.	.	4d\	ae-	4ccny\	.
!	!	!	!	!LO:TX:t=P:problem:kreska pseudotaktowa	!	!LO:TX:t=P:problem:kreska pseudotaktowa	!
.	.	.	.	4e\	.	4a\	.
!	!	!LO:LB:g=original	!	!	!	!	!
=45-	=45-	=45-	=45-	=45-	=45-	=45-	=45-
!	!	!LO:TX:t=P:problem:kreska pseudotaktowa	!	!	!	!	!
1r	.	1Gny	tel-	2fny\	.	4b\	.
.	.	.	.	.	.	4cc\	.
!	!	!	!	!LO:TX:t=P:problem:kreska pseudotaktowa	!	!	!
.	.	.	.	2d\	.	1dd	.
!LO:TX:t=P:problem:kreska pseudotaktowa	!	!LO:TX:t=P:problem:kreska pseudotaktowa	!	!	!	!	!
!	!	!LO:TX:t=P:problem:łuczek na nutą	!	!	!	!	!
1AA	Hunc	1A	.	2.g\	.	.	.
!	!	!	!	!	!	!LO:TX:t=P:problem:kreska pseudotaktowa	!
.	.	.	.	.	.	2cc#X\	-quo-
!	!	!	!	!LO:TX:t=P:problem:kreska pseudotaktowa	!	!	!
.	.	.	.	4f\	.	.	.
=46-	=46-	=46-	=46-	=46-	=46-	=46-	=46-
!	!	!LO:TX:t=P:problem:kreska pseudotaktowa	!	!	!	!LO:TX:t=P:problem:kreska pseudotaktowa	!
2BB/	as-	1D	-lus	2.e\	.	1dd	-ra
!LO:TX:t=P:problem:kreska pseudotaktowa	!	!	!	!	!	!	!
2BB/	-tra	.	.	.	.	.	.
!	!	!	!	!LO:TX:t=P:problem:kreska pseudotaktowa	!	!	!
.	.	.	.	4e\	-quo-	.	.
!LO:TX:t=P:problem:kreska pseudotaktowa	!	!LO:TX:t=P:problem:kreska pseudotaktowa	!	!	!	!LO:TX:t=P:problem:kreska pseudotaktowa	!
1C#X	tel-	1E	ae-	2d\	-ra:	1r	.
.	.	.	.	2.g\	tel-	.	.
=47-	=47-	=47-	=47-	=47-	=47-	=47-	=47-
!LO:TX:t=P:problem:kreska pseudotaktowa	!	!LO:TX:t=P:problem:kreska pseudotaktowa	!	!	!	!	!
1D	.	1F	.	.	.	1a	hunc
.	.	.	.	4f\	.	.	.
!	!	!	!	!LO:TX:t=P:problem:kreska pseudotaktowa	!	!	!
.	.	.	.	2e\	.	.	.
!	!	!LO:TX:t=P:problem:kreska pseudotaktowa	!	!	!	!	!
2GG/	-lus	1G	.	4a\	.	2b-X\	as-
.	.	.	.	4g\	.	.	.
!LO:TX:t=P:problem:kreska pseudotaktowa	!	!	!	!	!	!LO:TX:t=P:problem:kreska pseudotaktowa	!
2Cny/	ae-	.	.	4f\	.	2b-\	-tra
!	!	!	!	!LO:TX:t=P:problem:kreska pseudotaktowa	!	!	!
.	.	.	.	4e\	.	.	.
=48-	=48-	=48-	=48-	=48-	=48-	=48-	=48-
!	!	!LO:TX:t=P:problem:kreska pseudotaktowa	!	!	!	!	!
2.FF/	.	1F	.	2d\	.	4ccny\	tel-
.	.	.	.	.	.	4a\	.
!	!	!	!	!LO:TX:t=P:problem:kreska pseudotaktowa	!	!	!
.	.	.	.	2e\	.	1dd	.
!LO:TX:t=P:problem:kreska pseudotaktowa	!	!	!	!	!	!	!
4GG/	.	.	.	.	.	.	.
!	!	!LO:TX:t=P:problem:kreska pseudotaktowa	!	!	!	!	!
2.AA/	-quo-	1E	.	2A/	-lus	.	.
!	!	!	!	!	!	!LO:TX:t=P:problem:kreska pseudotaktowa	!
.	.	.	.	1d\	ae-	2cc#X\	-lus
!LO:TX:t=P:problem:kreska pseudotaktowa	!	!	!	!	!	!	!
4AA/	-ra	.	.	.	.	.	.
=49-	=49-	=49-	=49-	=49-	=49-	=49-	=49-
!LO:TX:t=P:problem:kreska pseudotaktowa	!	!	!	!	!	!	!
1D	.	2.D/	.	.	.	2dd\	.
!	!	!	!	!LO:TX:t=P:problem:kreska pseudotaktowa	!	!	!
.	.	.	.	2e\	.	2.a\	ae-
!	!	!LO:TX:t=P:problem:kreska pseudotaktowa	!	!	!	!	!
.	.	4D/	-quo-	.	.	.	.
!	!	!LO:TX:t=P:problem:kreska pseudotaktowa	!	!LO:TX:t=P:problem:brak źródła-urwana kartka	!	!	!
!	!	!	!	!LO:LB:g=original	!	!	!
0r	.	1E	-ra	1ryy	.	.	.
!	!	!	!	!	!	!LO:TX:t=P:problem:kreska pseudotaktowa	!
.	.	.	.	.	.	4bny\	.
!	!	!	!	!	!	!LO:LB:g=original	!
.	.	.	.	.	.	1ccny\	.
=50-	=50-	=50-	=50-	=50-	=50-	=50-	=50-
!	!	!LO:TX:t=P:problem:kreska pseudotaktowa	!	!	!	!	!
.	.	1G	hunc	2ryy	.	.	.
.	.	.	.	4ryy	.	2b\	-quo-
!	!	!	!	!LO:TX:t=P:problem:kreska pseudotaktowa	!	!	!
.	.	.	.	4e\	-quo-	.	.
!	!	!LO:TX:t=P:problem:kreska pseudotaktowa	!	!LO:TX:t=P:problem:kreska pseudotaktowa	!	!LO:TX:t=P:problem:kreska pseudotaktowa	!
!	!	!LO:TX:t=P:problem:łuczek na nutą	!	!	!	!	!
1r	.	1A	.	1d	-ra	1a	-ra
=51-	=51-	=51-	=51-	=51-	=51-	=51-	=51-
!	!	!LO:TX:t=P:problem:kreska pseudotaktowa	!	!	!	!LO:TX:a:B:t=1	!
2r	.	1c	om-	2r	.	0r	.
!LO:TX:t=P:problem:kreska pseudotaktowa	!	!	!	!LO:TX:t=P:problem:kreska pseudotaktowa	!	!	!
2C/	hunc	.	.	2c\	hunc	.	.
!	!	!LO:TX:t=P:problem:kreska pseudotaktowa	!	!	!	!	!
2E\	om-	1c	-ne	2e\	om-	.	.
!LO:TX:t=P:problem:kreska pseudotaktowa	!	!	!	!LO:TX:t=P:problem:kreska pseudotaktowa	!	!	!
2E\	-ne	.	.	2e\	-ne	.	.
=52-	=52-	=52-	=52-	=52-	=52-	=52-	=52-
!	!	!LO:TX:t=P:problem:kreska pseudotaktowa	!	!	!	!	!
2F\	quod	1c	quod	2g\	om-	2r	.
!LO:SIC:v:t=custos G	!	!	!	!	!	!	!
!LO:TX:t=P:problem:kreska pseudotaktowa	!	!	!	!	!	!LO:TX:t=P:problem:kreska pseudotaktowa	!
2F\	.	.	.	4e\	-ne	2g\	hunc
!	!	!	!	!LO:TX:t=P:problem:kreska pseudotaktowa	!	!	!
.	.	.	.	4e\	q(uo)d	.	.
!LO:PB:g=original	!	!	!	!	!	!	!
!LO:TX:t=P:problem:brak źródła-urwana kartka	!	!LO:TX:t=P:problem:kreska pseudotaktowa	!	!	!	!	!
!	!	!LO:TX:t=P:problem:łuczek na nutą	!	!	!	!	!
1ryy	.	1B	.	4a\	Coe-	2a\	om-
.	.	.	.	4g\	.	.	.
!	!	!	!	!	!	!LO:TX:t=P:problem:kreska pseudotaktowa	!
.	.	.	.	4f\	.	2a\	-ne
!	!	!	!	!LO:TX:t=P:problem:kreska pseudotaktowa	!	!	!
.	.	.	.	4e\	.	.	.
!	!	!LO:PB:g=original	!	!	!	!	!
=53-	=53-	=53-	=53-	=53-	=53-	=53-	=53-
!	!	!LO:TX:t=P:problem:brak źródła-urwana kartka	!	!	!	!	!
0ryy	.	0ryy	.	2d\	.	2b\	q(uo)d
!	!	!	!	!	!	!LO:TX:t=P:problem:kreska pseudotaktowa	!
.	.	.	.	1e	.	2b\	Coe-
.	.	.	.	.	.	2cc\	-lo
!	!	!	!	!LO:TX:t=P:problem:kreska pseudotaktowa	!	!LO:TX:t=P:problem:kreska pseudotaktowa	!
.	.	.	.	2f#X\	.	2a\	sub-
=54-	=54-	=54-	=54-	=54-	=54-	=54-	=54-
2ryy	.	0ryy	.	2g\	.	2b\	-est
!LO:TX:t=P:problem:wcześniej zapisane "subest"	!	!	!	!	!	!	!
!LO:TX:t=P:problem:kreska pseudotaktowa	!	!	!	!LO:TX:t=P:problem:kreska pseudotaktowa	!	!LO:TX:t=P:problem:kreska pseudotaktowa	!
2E\	quod	.	.	2a\	.	2ee\	quod
!	!	!	!	!LO:TX:t=P:problem:kreska pseudotaktowa	!	!	!
4F\	Coe-	.	.	1fn	.	4cc\	Coe-
4E\	.	.	.	.	.	4g\	.
4F\	.	.	.	.	.	2.cc\	.
!LO:TX:t=P:problem:kreska pseudotaktowa	!	!	!	!	!	!	!
4G\	.	.	.	.	.	.	.
=55-	=55-	=55-	=55-	=55-	=55-	=55-	=55-
!	!	!LO:TX:t=P:problem:kreska pseudotaktowa	!	!LO:TX:t=P:problem:kreska pseudotaktowa	!	!	!
4A\	.	1c	o	1e	-lo	.	.
4G\	.	.	.	.	.	4b\	.
4A\	.	.	.	.	.	4cc\	.
!LO:TX:t=P:problem:kreska pseudotaktowa	!	!	!	!	!	!LO:TX:t=P:problem:kreska pseudotaktowa	!
4B\	.	.	.	.	.	4dd\	.
4c\	.	1c	sub-	2r	.	4ee\	.
4B\	.	.	.	.	.	4dd\	.
!	!	!	!	!LO:TX:t=P:problem:kreska pseudotaktowa	!	!	!
4A\	.	.	.	2e\	quod	4cc\	.
!LO:TX:t=P:problem:kreska pseudotaktowa	!	!	!	!	!	!LO:TX:t=P:problem:kreska pseudotaktowa	!
4G\	.	.	.	.	.	4b\	.
!	!	!	!	!LO:LB:g=original	!	!	!
=56-	=56-	=56-	=56-	=56-	=56-	=56-	=56-
!	!	!LO:TX:t=P:problem:kreska pseudotaktowa	!	!	!	!	!
2F\	.	1c	-est	4c\	Coe-	4a\	.
.	.	.	.	4d\	.	4b\	.
!LO:TX:t=P:problem:kreska pseudotaktowa	!	!	!	!	!	!	!
2C/	-lo	.	.	4e\	.	1cc	-lo
!	!	!	!	!LO:TX:t=P:problem:kreska pseudotaktowa	!	!	!
.	.	.	.	4f\	.	.	.
2.G\	sub-	1G	ſa-	2d\	-lo	.	.
!	!	!	!	!	!	!LO:LB:g=original	!
!	!	!	!	!LO:TX:t=P:problem:kreska pseudotaktowa	!	!LO:TX:t=P:problem:kreska pseudotaktowa	!
.	.	.	.	2d\	sub-	2b\	sub-
!LO:TX:t=P:problem:kreska pseudotaktowa	!	!	!	!	!	!	!
4G\	-est.	.	.	.	.	.	.
=57-	=57-	=57-	=57-	=57-	=57-	=57-	=57-
!LO:TX:t=P:problem:kreska pseudotaktowa	!	!	!	!LO:TX:t=P:problem:kreska pseudotaktowa	!	!LO:TX:t=P:problem:kreska pseudotaktowa	!
1C	.	1G	-lu-	1e	-est	1cc	-est
!	!	!LO:TX:t=P:problem:kreska pseudotaktowa	!	!	!	!	!
00r	.	1c	.	2r	.	0r	.
!	!	!	!	!LO:TX:t=P:problem:kreska pseudotaktowa	!	!	!
.	.	.	.	2c/	ſa-	.	.
=58-	=58-	=58-	=58-	=58-	=58-	=58-	=58-
!	!	!	!	!LO:TX:t=P:problem:kreska pseudotaktowa	!	!	!
.	.	1d	-tis	1f	-lu-	.	.
!	!	!LO:TX:t=P:problem:kreska pseudotaktowa	!	!LO:TX:t=P:problem:kreska pseudotaktowa	!	!LO:TX:t=P:problem:kreska pseudotaktowa	!
.	.	1B	au-	1g	.	1g	ſa-
=59-	=59-	=59-	=59-	=59-	=59-	=59-	=59-
!	!	!LO:SIC:l:v:s=-tho-	!	!	!	!	!
.	.	1c	-cto-	4e\	-tis	1cc	-lu-
.	.	.	.	4e\	au-	.	.
!	!	!	!	!LO:TX:t=P:problem:kreska pseudotaktowa:między nutą a kropką	!	!	!
.	.	.	.	2.a\	-tho-	.	.
!	!	!LO:TX:t=P:problem:kreska pseudotaktowa	!	!	!	!	!
0r	.	1B	.	.	.	2dd\	-tis
.	.	.	.	4d\,	-rem,	.	.
!	!	!	!	!	!	!LO:TX:t=P:problem:kreska pseudotaktowa	!
.	.	.	.	1g\	no-	2b\	au-
=60-	=60-	=60-	=60-	=60-	=60-	=60-	=60-
!	!	!	!	!	!	!LO:TX:t=P:problem:kreska pseudotaktowa	!
.	.	1A	-rem	.	.	1cc	-tho-
!	!	!	!	!LO:TX:t=P:problem:kreska pseudotaktowa	!	!	!
.	.	.	.	2f#X\	-vae	.	.
!	!	!LO:TX:t=P:problem:kreska pseudotaktowa	!	!	!	!	!
2r	.	1G	.	2g\	.	2b\	-rem
!LO:TX:t=P:problem:kreska pseudotaktowa	!	!	!	!LO:TX:t=P:problem:kreska pseudotaktowa	!	!LO:TX:t=P:problem:kreska pseudotaktowa	!
2C/	ſa	.	.	2e\	sa-	2cc\	au-
!LO:LB:g=original	!	!	!	!	!	!	!
=61-	=61-	=61-	=61-	=61-	=61-	=61-	=61-
!LO:TX:t=P:problem:brak źródła-urwana kartka	!	!LO:TX:t=P:problem:kreska pseudotaktowa	!	!	!	!LO:TX:t=P:problem:kreska pseudotaktowa	!
1ryy	.	1A	.	4c/	-lu-	1a	-tho-
.	.	.	.	4B/	.	.	.
.	.	.	.	4c/	.	.	.
!	!	!	!	!LO:TX:t=P:problem:kreska pseudotaktowa	!	!	!
.	.	.	.	4d/	.	.	.
2E\	au-	1E	no-	2e,\	-tis	2g\	-rem
!	!LO:SIC:l:v:s=-tho-	!	!	!LO:TX:t=P:problem:kreska pseudotaktowa:między nutą a kropką	!	!	!
2.C/	-cto-	.	.	2.e\	no-	1cc\	ſa-
=62-	=62-	=62-	=62-	=62-	=62-	=62-	=62-
!	!	!	!	!LO:SIC:v:t=custos d	!	!	!
.	.	1E	-vae	.	.	.	.
!	!	!	!	!LO:LB:g=original	!	!	!
4BB/	-rem	.	.	4d\	.	.	.
!	!	!	!	!	!	!LO:TX:t=P:problem:kreska pseudotaktowa	!
4C/	.	.	.	4c\	.	2cc\	-lu-
!LO:TX:t=P:problem:kreska pseudotaktowa	!	!	!	!LO:TX:t=P:problem:kreska pseudotaktowa	!	!	!
4D/	.	.	.	4A/	.	.	.
!LO:TX:t=P:problem:kreska pseudotaktowa	!	!LO:TX:t=P:problem:# above	!	!LO:TX:t=P:problem:kreska pseudotaktowa	!	!	!
1E	no-	1G#X	.	1e	.	2b\	-tis
!	!	!	!	!	!	!LO:TX:t=P:problem:kreska pseudotaktowa	!
.	.	.	.	.	.	2b\	no-
=63-	=63-	=63-	=63-	=63-	=63-	=63-	=63-
!	!	!	!	!	!	!LO:TX:a:B:t=2	!
!LO:TX:t=P:problem:kreska pseudotaktowa	!	!LO:TX:t=P:problem:kreska pseudotaktowa	!	!LO:TX:t=P:problem:kreska pseudotaktowa	!	!LO:TX:t=P:problem:kreska pseudotaktowa	!
1AA	-vae	1A	.	1e	-vae	0a	-vae
0r	.	1D	no-	2d\	no-	.	.
!	!	!	!	!LO:TX:t=P:problem:kreska pseudotaktowa:między nutą a kropką	!	!	!
.	.	.	.	2.fny\	-vo	.	.
=64-	=64-	=64-	=64-	=64-	=64-	=64-	=64-
!	!	!LO:TX:t=P:problem:kreska pseudotaktowa	!	!	!	!	!
.	.	1F	-vo	.	.	1r	.
.	.	.	.	4g\	ſa-	.	.
.	.	.	.	1a	-lu-	.	.
!	!	!LO:LB:g=original	!	!	!	!	!
1r	.	1F	sa-	.	.	1a	no-
!	!	!	!	!LO:SIC:l:v:s=-tat	!	!	!
!	!	!	!	!LO:TX:t=P:problem:kreska pseudotaktowa	!	!	!
.	.	.	.	2f\	-lat	.	.
!	!	!	!	!	!	!LO:LB:g=original	!
=65-	=65-	=65-	=65-	=65-	=65-	=65-	=65-
!	!	!LO:TX:t=P:problem:kreska pseudotaktowa	!	!	!	!	!
2r	.	1A	-lu-	4e\	Can-	2.cc\	-vo
.	.	.	.	4d\	.	.	.
!LO:TX:t=P:problem:kreska pseudotaktowa	!	!	!	!	!	!	!
2AA/	no-	.	.	4c\	.	.	.
!	!	!	!	!LO:TX:t=P:problem:kreska pseudotaktowa	!	!LO:TX:t=P:problem:kreska pseudotaktowa	!
.	.	.	.	4B/	.	4dd\	sa-
!	!	!	!	!	!	!LO:TX:t=P:problem:kreska pseudotaktowa	!
2C/	-vo	1A	-tant	2A/	.	1ee	-lu-
!LO:TX:t=P:problem:kreska pseudotaktowa	!	!	!	!	!	!	!
2C/	sa-	.	.	4a\	.	.	.
!	!	!	!	!LO:TX:t=P:problem:kreska pseudotaktowa	!	!	!
.	.	.	.	4g\	.	.	.
=66-	=66-	=66-	=66-	=66-	=66-	=66-	=66-
!	!	!LO:TX:t=P:problem:kreska pseudotaktowa	!	!	!	!LO:TX:t=P:problem:kreska pseudotaktowa	!
2D\	-lu-	1B-X	.	2f\	.	1dd	.
!LO:TX:t=P:problem:kreska pseudotaktowa	!	!	!	!	!	!	!
2E\	-tant	.	.	1e	.	.	.
2.F\,	Can-	1A	.	.	.	2cc\	-tis
!	!	!	!	!LO:TX:t=P:problem:kreska pseudotaktowa	!	!LO:TX:t=P:problem:kreska pseudotaktowa	!
.	.	.	.	2d\	-ti-	2dd\	Can-
!LO:TX:t=P:problem:kreska pseudotaktowa	!	!	!	!	!	!	!
4F\	-ti-	.	.	.	.	.	.
=67-	=67-	=67-	=67-	=67-	=67-	=67-	=67-
!	!	!LO:TX:t=P:problem:kreska pseudotaktowa	!	!	!	!	!
2E\	-co	1Gny	.	2e\	-co	2b\	.
!LO:TX:t=P:problem:kreska pseudotaktowa:między nutą a kropką	!	!	!	!	!	!LO:TX:t=P:problem:kreska pseudotaktowa:między nutą a kropką	!
2.E\	Can-	.	.	1B	sa-	2.ee\	.
.	.	1E	Can-	.	.	.	.
4D/	.	.	.	.	.	4b\	.
!	!	!	!	!LO:TX:t=P:problem:kreska pseudotaktowa:między nutą a kropką	!	!	!
4C/	.	.	.	2.c/	-lu-	4ee\	.
!LO:TX:t=P:problem:kreska pseudotaktowa	!	!	!	!	!	!LO:TX:t=P:problem:kreska pseudotaktowa	!
4BB/	.	.	.	.	.	4dd\	.
!LO:LB:g=original	!	!	!	!	!	!	!
=68-	=68-	=68-	=68-	=68-	=68-	=68-	=68-
!	!	!LO:TX:t=P:problem:kreska pseudotaktowa	!	!	!	!	!
2AA/	.	1F	.	.	.	2cc\	.
.	.	.	.	4c/	.	.	.
!	!	!	!	!	!	!LO:TX:t=P:problem:kreska pseudotaktowa:między nutą a kropką	!
1BB	.	.	.	1d	-tat	2.b\	.
.	.	1G	.	.	.	.	.
.	.	.	.	.	.	4a\	.
!LO:TX:t=P:problem:kreska pseudotaktowa	!	!	!	!LO:TX:t=P:problem:kreska pseudotaktowa	!	!	!
2C#X/	.	.	.	2e\	Can-	4g\	.
!	!	!	!	!	!	!LO:TX:t=P:problem:kreska pseudotaktowa	!
.	.	.	.	.	.	4e/	.
=69-	=69-	=69-	=69-	=69-	=69-	=69-	=69-
1.D	.	1.F	.	4f\	.	4a\	.
.	.	.	.	4g\	.	8b\L	.
.	.	.	.	.	.	8cc\J	.
.	.	.	.	4a\	.	1dd	.
!	!	!	!	!LO:TX:t=P:problem:kreska pseudotaktowa	!	!	!
.	.	.	.	4g\	.	.	.
!	!	!	!	!LO:LB:g=original	!	!	!
.	.	.	.	2f\	.	.	.
!LO:TX:t=P:problem:kreska pseudotaktowa	!	!LO:TX:t=P:problem:kreska pseudotaktowa	!	!LO:TX:t=P:problem:kreska pseudotaktowa	!	!	!
2D/	-ti-	2F/	-ti-	2d\	-ti-	2dd\	-ti-
=70-	=70-	=70-	=70-	=70-	=70-	=70-	=70-
00AA;>	-co.	00E;>	-co.	00e;>	-co	00cc#X;>	-co.
!	!	!LO:LB:g=original	!	!	!	!LO:LB:g=original	!
=71||-	=71||-	=71||-	=71||-	=71||-	=71||-	=71||-	=71||-
*M3/2	*	*M3/2	*	*M3/2	*	*M3/2	*
2A\	JE-	2c#\	JE-	2e\	JE-	2a\	JE-
2A\	-ſu	2c#\	-ſu	2e\	-ſu	2a\	-ſu
!LO:TX:t=P:problem:kreska pseudotaktowa	!	!LO:TX:t=P:problem:kreska pseudotaktowa	!	!LO:TX:t=P:problem:kreska pseudotaktowa	!	!LO:TX:t=P:problem:kreska pseudotaktowa	!
2A\	Ti-	2c#\	Ti-	2e\	Ti-	2a\	ti-
=72-	=72-	=72-	=72-	=72-	=72-	=72-	=72-
1F	-bi	1d	-bi	1f	-bi	1a	-bi
!LO:TX:t=P:problem:kreska pseudotaktowa	!	!LO:TX:t=P:problem:kreska pseudotaktowa	!	!LO:TX:t=P:problem:kreska pseudotaktowa	!	!LO:TX:t=P:problem:kreska pseudotaktowa	!
2D\	sit	2d\	sit	2f\	sit	2a\	sit
=73-	=73-	=73-	=73-	=73-	=73-	=73-	=73-
2.G\	glo-	2.Bny\	glo-	2.d\	glo-	2.g\	glo-
4G\	-ri-	4B\	-ri-	4d\	-ri-	4g\	-ri-
!LO:TX:t=P:problem:kreska pseudotaktowa	!	!LO:TX:t=P:problem:kreska pseudotaktowa	!	!LO:TX:t=P:problem:kreska pseudotaktowa	!	!LO:TX:t=P:problem:kreska pseudotaktowa	!
2G\	-a	2B\	-a	2d\	-a	2g\	-a
=74-	=74-	=74-	=74-	=74-	=74-	=74-	=74-
2E\	qui	2cny\	q(ui)	2e\	q(ui)	2g\	q(ui)
2F\	na-	2c\	na-	2c\	na-	2a\	na-
!LO:TX:t=P:problem:kreska pseudotaktowa	!	!LO:TX:t=P:problem:kreska pseudotaktowa	!	!LO:TX:t=P:problem:kreska pseudotaktowa	!	!LO:TX:t=P:problem:kreska pseudotaktowa	!
2G\	-t(us)	2B\	-tus	2g\	-t(us)	2b\	-tus
=75-	=75-	=75-	=75-	=75-	=75-	=75-	=75-
1A	es	4A/	es	1e	es	4ccny\	es
.	.	4G/	.	.	.	4b\	.
.	.	4A/	.	.	.	4cc\	.
.	.	4B/	.	.	.	4dd\	.
!LO:TX:t=P:problem:kreska pseudotaktowa	!	!LO:TX:t=P:problem:kreska pseudotaktowa	!	!LO:TX:t=P:problem:kreska pseudotaktowa	!	!LO:TX:t=P:problem:kreska pseudotaktowa	!
2E\	de	2c\	de	2e\	de	2ee\	de
!LO:LB:g=original	!	!	!	!	!	!	!
=76-	=76-	=76-	=76-	=76-	=76-	=76-	=76-
2F\	Vir-	1c	vir-	2a\	vir-	2dd\	.
2.G\	.	.	.	2.g\	.	2.dd\	Vir-
!	!	!LO:TX:t=P:problem:kreska pseudotaktowa	!	!	!	!	!
.	.	2B\	-gi-	.	.	.	.
!LO:TX:t=P:problem:kreska pseudotaktowa	!	!	!	!LO:TX:t=P:problem:kreska pseudotaktowa	!	!LO:TX:t=P:problem:kreska pseudotaktowa	!
4GG/	-gi-	.	.	4g\	-gi-	4dd\	-gi-
=77-	=77-	=77-	=77-	=77-	=77-	=77-	=77-
!LO:TX:t=P:problem:kreska pseudotaktowa	!	!LO:TX:t=P:problem:kreska pseudotaktowa	!	!LO:TX:t=P:problem:kreska pseudotaktowa	!	!LO:TX:t=P:problem:kreska pseudotaktowa	!
1.Cny	-ne	1.c	-ne	1.e	-ne	1.cc	-ne
=78-	=78-	=78-	=78-	=78-	=78-	=78-	=78-
00.r	.	2c\	cu(m)	2e\	c(um)	2g\	cum
.	.	2B\	Pa-	2d\	Pa-	2g\	Pa-
!	!	!LO:TX:t=P:problem:kreska pseudotaktowa	!	!	!	!	!
.	.	2c\	-tre	4e\	-tre	4g\	-tre
!	!	!	!	!LO:TX:t=P:problem:kreska pseudotaktowa	!	!LO:TX:t=P:problem:kreska pseudotaktowa	!
.	.	.	.	4g\	et	4g\	et
=79-	=79-	=79-	=79-	=79-	=79-	=79-	=79-
.	.	2A\,	et,	1g	al-	1a	al-
.	.	2A\	al-	.	.	.	.
!	!	!LO:TX:t=P:problem:kreska pseudotaktowa	!	!LO:TX:t=P:problem:kreska pseudotaktowa	!	!LO:TX:t=P:problem:kreska pseudotaktowa	!
.	.	2d\	-mo	2f#X\	-mo	2a\	-mo
!	!	!LO:LB:g=original	!	!	!	!	!
=80-	=80-	=80-	=80-	=80-	=80-	=80-	=80-
.	.	2.G/	ſpi-	2.g\	ſpi-	2.b\	ſpi-
.	.	4G/	-ri-	4g\	-ri-	4b\	-ri-
!	!	!	!	!	!	!LO:SIC:l:v:s=-tu	!
!	!	!LO:TX:t=P:problem:kreska pseudotaktowa	!	!LO:TX:t=P:problem:kreska pseudotaktowa	!	!LO:TX:t=P:problem:kreska pseudotaktowa	!
.	.	2G/	-tu	2g\	-tu	2b\	-tus
=81-	=81-	=81-	=81-	=81-	=81-	=81-	=81-
.	.	2G/	in	2d\	in	2b\	in
.	.	2G/	sem-	2e\	se(m)-	2cc#X\	se(m)-
!	!	!LO:TX:t=P:problem:kreska pseudotaktowa	!	!LO:TX:t=P:problem:kreska pseudotaktowa	!	!LO:TX:t=P:problem:kreska pseudotaktowa	!
!	!	!	!	!	!	!LO:SIC:l:v:s=-pi-	!
.	.	2F#X/	-pi-	2f#X\	-piter-	2dd#X\	-piter-
!	!	!	!	!LO:LB:g=original	!	!LO:LB:g=original	!
=82-	=82-	=82-	=82-	=82-	=82-	=82-	=82-
0.r	.	4E/	-ter-	1g	.	1ee	-ter-
.	.	4D/	.	.	.	.	.
.	.	4E/	.	.	.	.	.
!	!	!LO:TX:t=P:problem:# below	!	!	!	!	!
.	.	4F#X/	.	.	.	.	.
!	!	!LO:TX:t=P:problem:kreska pseudotaktowa	!	!LO:TX:t=P:problem:kreska pseudotaktowa:między nutami połączonymi ligaturą	!	!LO:TX:t=P:problem:kreska pseudotaktowa	!
.	.	2G/	.	2g\	-na	[>2ee\	-na
=83-	=83-	=83-	=83-	=83-	=83-	=83-	=83-
.	.	2A\	-na	1f#X	sae-	2ee]	.
.	.	2.B\	sae-	.	.	2ee\	ſae-
!	!	!	!	!LO:TX:t=P:problem:kreska pseudotaktowa	!	!LO:TX:t=P:problem:kreska pseudotaktowa	!
.	.	.	.	2f#\	-cu-	2dd#X\	-cu-
!	!	!LO:TX:t=P:problem:kreska pseudotaktowa	!	!	!	!	!
.	.	4B\	-cu-	.	.	.	.
=84-	=84-	=84-	=84-	=84-	=84-	=84-	=84-
!	!	!LO:TX:t=P:problem:kreska pseudotaktowa	!	!LO:TX:t=P:problem:kreska pseudotaktowa	!	!LO:TX:t=P:problem:kreska pseudotaktowa	!
1.r	.	1.E	-la	1.g#X	-la	1.ee	-la
=85-	=85-	=85-	=85-	=85-	=85-	=85-	=85-
2F\	Cum	2c\	cu(m)	2a\	Cu(m)	2ccny\	cum
2E\	Pa-	2e\	Pa-	2gny\	Pa-	2cc\	Pa-
!LO:TX:t=P:problem:kreska pseudotaktowa	!	!	!	!LO:TX:t=P:problem:kreska pseudotaktowa	!	!	!
2F\	-tre	4c\,	-tre,	2a\	-tre	4cc\	-tre
!	!	!LO:TX:t=P:problem:kreska pseudotaktowa	!	!	!	!LO:TX:t=P:problem:kreska pseudotaktowa	!
.	.	4c\	et	.	.	4cc\	et
=86-	=86-	=86-	=86-	=86-	=86-	=86-	=86-
2D\	et	1c	al-	2fn\	et	1ddny	al-
2D\	al-	.	.	2f\	al-	.	.
!LO:TX:t=P:problem:kreska pseudotaktowa	!	!LO:TX:t=P:problem:kreska pseudotaktowa	!	!LO:TX:t=P:problem:kreska pseudotaktowa	!	!LO:TX:t=P:problem:kreska pseudotaktowa	!
2G\	-mo	2B\	-mo	2g\	-mo	2dd\	-mo
=87-	=87-	=87-	=87-	=87-	=87-	=87-	=87-
2.C/	ſpi-	2.c\	ſpi-	2.g\	ſpi-	2.ee\	ſpi-
4C/	-ri-	4c\	-ri-	4g\	-ri-	4ee\	-ri-
!LO:TX:t=P:problem:kreska pseudotaktowa	!	!LO:TX:t=P:problem:kreska pseudotaktowa	!	!LO:TX:t=P:problem:kreska pseudotaktowa	!	!LO:TX:t=P:problem:kreska pseudotaktowa	!
2C/	-tu	2c\	-tu	2g\	-tu	2ee\	-tu
!	!	!LO:LB:g=original	!	!	!	!	!
=88-	=88-	=88-	=88-	=88-	=88-	=88-	=88-
2C/	in	2G/	in	2g\	in	2e/	in
2C/	ſem-	2A/	sem-	2f#X\	sem-	2f#X/	sem-
!LO:TX:t=P:problem:kreska pseudotaktowa	!	!LO:TX:t=P:problem:kreska pseudotaktowa	!	!LO:TX:t=P:problem:kreska pseudotaktowa	!	!LO:TX:t=P:problem:kreska pseudotaktowa	!
2BB/	-pi-	2B/	-pi-	2b\	-pi-	2g#X/	-pi-
=89-	=89-	=89-	=89-	=89-	=89-	=89-	=89-
4AA/	-ter-	1c	-ter-	1e	-ter-	1a	-ter-
4GG/	.	.	.	.	.	.	.
4AA/	.	.	.	.	.	.	.
4BB/	.	.	.	.	.	.	.
!LO:TX:t=P:problem:kreska pseudotaktowa	!	!LO:TX:t=P:problem:kreska pseudotaktowa	!	!LO:TX:t=P:problem:kreska pseudotaktowa	!	!	!
2C/	-na	2c\	-na	2e\	-na	1a\	-na
!LO:LB:g=original	!	!	!	!	!	!	!
=90-	=90-	=90-	=90-	=90-	=90-	=90-	=90-
2D\	sae-	1B	sae-	2fn\	sae-	.	.
2.E\	.	.	.	2.e\	-cu-	2a\	ſae-
!	!	!LO:TX:t=P:problem:kreska pseudotaktowa	!	!	!	!LO:TX:t=P:problem:kreska pseudotaktowa	!
.	.	2B\	-cu-	.	.	2g#X\	-cu-
!LO:TX:t=P:problem:kreska pseudotaktowa	!	!	!	!LO:TX:t=P:problem:kreska pseudotaktowa	!	!	!
4E\	-cu-	.	.	4e\	.	.	.
=91-	=91-	=91-	=91-	=91-	=91-	=91-	=91-
!LO:TX:t=P:problem:kreska pseudotaktowa	!	!LO:TX:t=P:problem:kreska pseudotaktowa	!	!LO:TX:t=P:problem:kreska pseudotaktowa-podwójna	!	!LO:TX:t=P:problem:kreska pseudotaktowa	!
!	!	!	!	!LO:TX:t=P:problem:podwójna kreska	!	!	!
1.AA	-la	1.c#X	-la	1.e	-la	1.a	-la
=92-	=92-	=92-	=92-	=92||-	=92||-	=92-	=92-
1D	a-	1d	a-	1f	a-	1a	a-
!LO:TX:t=P:problem:kreska pseudotaktowa	!	!LO:TX:t=P:problem:kreska pseudotaktowa	!	!LO:TX:t=P:problem:kreska pseudotaktowa	!	!LO:TX:t=P:problem:kreska pseudotaktowa	!
2C#X/	-men	2A\	-men	2e\	-men	2a\	-men
=93-	=93-	=93-	=93-	=93-	=93-	=93-	=93-
!LO:TX:t=P:problem:kreska pseudotaktowa	!	!LO:TX:t=P:problem:kreska pseudotaktowa	!	!LO:TX:t=P:problem:kreska pseudotaktowa	!	!LO:TX:t=P:problem:kreska pseudotaktowa	!
*	*	*	*	*	*ij	*	*ij
1.D	a-	1.d	a-	1.f	a-	1.a	a-
=94-	=94-	=94-	=94-	=94-	=94-	=94-	=94-
00AA;>	-men.	00c#X;>	-men.	00e;>	-men	00a;>	-men
*	*	*	*	*	*Xij	*	*Xij
==	==	==	==	==	==	==	==
*-	*-	*-	*-	*-	*-	*-	*-
!!!system-decoration: [(s1,s2,s3,s4)]
!!!RDF**kern: > = above
!!!RDF**kern: < = below
!!!RDF**kern: l = terminal long
!!!ENC:Anastazja Marusiak
!!!END:2021-03-18
!!!EED: Mateusz Mrugas
!!!EST: 2021-03-26
